X:1
T:Title
%%score { ( 1 3 ) | ( 2 4 ) }
L:1/8
M:9/8
K:C
V:1 treble nm="Grand Piano"
V:3 treble 
V:2 bass 
V:4 bass 
V:1
 z3 z3[Q:1/4=84] [Ec][Ed][Ec] | [FB]3 [B,F]3 [B,FA][B,FB][B,FA] | [CEG]3 C3 CDE | E3 D2 D GFE | %4
 A6 z3 | [Ac]3 [GB]3 [^GB][Ge][Gd] |[M:3/4] [Bd]3 c3 |[M:3/8] cBA |[M:9/8] G3 e2 e fe[Fd] | %9
[M:3/4] [Ec]6 |[M:6/8] B2 D GAB | B[Ac][GB] [^FA]3 | [^FA][GB][Ac] [Ac][GB][Ac] | [ce][Bd][Ac] B3 | %14
 d>BG d>BG | d>BG D3 | DDE ^FED |[M:4/4] B3 A- A<[B,G]- [B,G]2 |[M:9/8] [Ec][Ed][Ec] [FB]3 [B,F]3 | %19
 [B,FA][B,FB][B,FA] [CEG]3 C3 | CDE E3 D2 D | GFE A3- [^CA]3 | A[^Fd][Fc] [Ac]3 [GB]3 | %23
[M:3/4] [^GB][Ge] [Gd] [Bd]3 |[M:3/8] c3 | cBA |[M:9/8] G3 e2 e fe[Fd] |[M:7/4] [Ec]6 z2 z2 z4 |] %28
V:2
 z3 z3 [C,G,][C,G,][C,G,] | [D,G,]3 G,3 G,,G,,G,, | C,3 [C,E,]3 [E,G,][D,G,B,][C,G,C] | %3
 [D,G,B,]3 [G,B,]2 [F,G,B,] [E,G,C][D,G,C][C,G,C] | [F,,F,]3 [E,G,]3 [D,^F,D][D,A,][D,D] | %5
 [^F,D]3 [G,D]3 [E,E][E,B,][E,E] |[M:3/4][K:treble] [^G,E]3 [A,EA]3 | %7
[M:3/8][K:bass] [^F,A,_E][F,B,E][F,CE] | %8
[M:9/8][K:treble] [G,CE]3 [G,CG]2 [G,CG] [G,B,G][G,CG][K:bass][G,,G,] |[M:3/4] [C,G,]6 | %10
[M:6/8] [G,D]2 [G,B,] [G,D][K:treble][G,CD][G,DG] | [G,DG][G,D][G,D][K:bass] [D,D]3 | %12
 [D,D][D,D][D,D] [D,D][D,D][D,D] | [D,D][E,D][^F,D][K:treble] [G,DG]3 | D>B,G, D>[K:bass]B,G, | %15
 D>B,G, D,3 | [D,^F,][D,F,][D,G,^C] [D,A,=C][D,G,C][D,F,C] | %17
[M:4/4] [D,G,D]3 [D,CD]- [D,CD]/ z/ z z/ F3/2 |[M:9/8] [C,G,][C,G,][C,G,] [D,G,]3 G,3 | %19
 G,,G,,G,, C,3 [C,E,]3 | [E,G,][D,G,B,][C,G,C] [D,G,B,]3 [G,B,]2 [F,G,B,] | %21
 [E,G,C][D,G,C][C,G,C] [F,,F,]3 [E,G,]3 | [D,^F,D][D,A,][D,D] [F,D]3 [G,D]3 | %23
[M:3/4] [E,E][E,B,] [E,E][K:treble] [^G,E]3 |[M:3/8] [A,EA]3 | [^F,A,_E][F,B,E][F,CE] | %26
[M:9/8][K:treble] [G,CE]3 [G,CG]2 [G,CG] [G,B,G][G,CG][K:bass][G,,G,] |[M:7/4] [C,G,]6 z2 z2 z4 |] %28
V:3
 x9 | x9 | x9 | x9 | C3 ^C3 A[^Fd][Fc] | x9 |[M:3/4] x6 |[M:3/8] x3 |[M:9/8] x9 |[M:3/4] x6 | %10
[M:6/8] x6 | x6 | x6 | x6 | x6 | x6 | x6 |[M:4/4] z4 z/ D3/2- D/ z/ z |[M:9/8] x9 | x9 | x9 | %21
 z3 C3 z3 | x9 |[M:3/4] x6 |[M:3/8] x3 | x3 |[M:9/8] x9 |[M:7/4] x14 |] %28
V:4
 x9 | x9 | x9 | x9 | x9 | x9 |[M:3/4][K:treble] x6 |[M:3/8][K:bass] x3 | %8
[M:9/8][K:treble] x8[K:bass] x |[M:3/4] x6 |[M:6/8] x4[K:treble] x2 | x3[K:bass] x3 | x6 | %13
 x3[K:treble] x3 | x9/2[K:bass] x3/2 | x6 | x6 |[M:4/4] z4 z/ G,,3/2- G,,2 |[M:9/8] x9 | x9 | x9 | %21
 x9 | x9 |[M:3/4] x3[K:treble] x3 |[M:3/8] x3 | x3 |[M:9/8][K:treble] x8[K:bass] x |[M:7/4] x14 |] %28

